!!!!SEGMENT: pl-sa--6-a-i-6--003_anonim--radawaczka.krn
!!!cenid: 18xx:366
!!!COM: Anonim
!!!COM-rismID: pe30004985
!!!CDT:
!!!CNT:
!!!OTL: Radawaczka
!!!PDT:
!!!AGN: Secular
!!!SMS-siglum: PL-SA
!!!SMS-shelfmark: 6/A I 6
!!!SMS-shelfwork: 003 W
!!!SMS-variant:
!!!SMS-altvar:
!!!NIFC-rismSourceID: 1001065405
!!!NIFC-islandoraID:
!!!URL-pdf-islandora:
!!!URL-scan: https://bc.bdsandomierz.pl/dlibra/publication/1233/edition/1194/content @EN{Scan in the Sandomierz Diocese Digital Library} @PL{Skany w portalu Cyfrowa Biblioteka Diecezjalna w Sandomierzu}
!!!ONB-nifc: Str. 1, s. 3-4
!!!AIN: 2 empty
!!!key:
**kern	**kern
*part2	*part1
*staff2	*staff1
*Iempty	*Iempty
*I"	*I"
*clefF4	*clefG2
*k[c#f#g#]	*k[c#f#g#]
*A:	*A:
*	*M3/8
=1	=1
8A\L	16a\LL
.	16cc#\J
8e 8c#\	8ee\
8eJ 8c#\	8ee\J
=2	=2
*rep	*
8A\L	16ee\LL
.	16ff#\
8e 8c#\	16ee\
.	16dd\J
8eJ 8c#\	8cc#\J
*Xrep	*
=3	=3
*rep	*
8A\L	16cc#\LL
.	16dd\
8e 8c#\	16cc#\
.	16b\J
8eJ 8c#\	8a\J
*Xrep	*
=4	=4
8E\L	8a\L
8c# 8A\	8cc#\
8dJ 8G#\	8b\J
=5	=5
*rep	*
8E\L	8a\L
8c# 8A\	8cc#\
8dJ 8G#\	8b\J
*Xrep	*
=6	=6
8E\L	16b\LL
.	16cc#\J
8d 8B\	8dd\
8dJ 8B\	8dd\J
=7	=7
*rep	*
8E\L	16dd\LL
.	16ee\
8d 8B\	16dd\
.	16cc#\J
8dJ 8B\	8b\J
*Xrep	*
!!LO:LB:g=original
=8	=8
8E\L	16b/LL
.	16cc#/
8d 8B\	16b/
.	16a/J
8dJ 8B\	8g#/J
=9	=9
8E\L	8g#/L
8d 8B\	8b/
8c#J 8A\	8a/J
=10	=10
*rep	*
8E\L	8g#/L
8d 8B\	8b/
8c#J 8A\	8a/J
*Xrep	*
=11||	=11||
8E\L	8a\L
8c# 8A\	16cc#L 16a\
.	16cc#\
8c#J 8A\	16ee\
.	16cc#\JJ
=12	=12
8E\L	16cc#\LL
.	16b\JJ
8d 8B\	4b\
8dJ 8B\	.
=13	=13
*rep	*
8E\L	8b\L
8d 8B\	16b\L
.	16dd\
8dJ 8B\	16ff#\
.	16dd\JJ
*Xrep	*
=14	=14
8A\L	16dd\LL
.	16cc#\JJ
8e 8c#\	4cc#\
8eJ 8c#\	.
=15	=15
*rep	*
8A\L	8a\L
8e 8c#\	16a\L
.	16cc#\
8eJ 8c#\	16ee\
.	16cc#\JJ
*Xrep	*
=16	=16
8E\L	16cc#\LL
.	16b\JJ
8d 8G#\	4b\
8dJ 8G#\	.
=17	=17
*rep	*
8E\L	8ee/L
8d 8G#\	8g#/
8dJ 8G#\	8g#/J
*Xrep	*
=18	=18
4c# 4A\	4a/
8r	8r
=:|!	=:|!
*-	*-
!!!system-decoration: {s1,s2}
!!!ENC: Marta Lawrence
!!!END: 2020-12-15
!!!ENC: Mateusz Solarz
!!!END: 2020-06-15
!!!YEC: Copyright 2022 Narodowy Instytut Fryderyka Chopina (https://polishscores.org)
!!!YEM: Licence CC BY 4.0 (https://creativecommons.org/licenses/by/4.0)
